docs/abstractproperty.svg

<?xml version="1.0" encoding="UTF-8" standalone="no"?>
<svg
   xmlns:osb="http://www.openswatchbook.org/uri/2009/osb"
   xmlns:dc="http://purl.org/dc/elements/1.1/"
   xmlns:cc="http://creativecommons.org/ns#"
   xmlns:rdf="http://www.w3.org/1999/02/22-rdf-syntax-ns#"
   xmlns:svg="http://www.w3.org/2000/svg"
   xmlns="http://www.w3.org/2000/svg"
   width="16.036167"
   version="1.1"
   id="svg7384"
   height="16">
  <metadata
     id="metadata90">
    <rdf:RDF>
      <cc:Work
         rdf:about="">
        <dc:format>image/svg+xml</dc:format>
        <dc:type
           rdf:resource="http://purl.org/dc/dcmitype/StillImage" />
        <dc:title>elementary Symbolic Icon Theme</dc:title>
      </cc:Work>
    </rdf:RDF>
  </metadata>
  <title
     id="title9167">elementary Symbolic Icon Theme</title>
  <defs
     id="defs7386">
    <linearGradient
       id="linearGradient4526"
       osb:paint="solid">
      <stop
         style="stop-color:#ffffff;stop-opacity:1;"
         offset="0"
         id="stop4528" />
    </linearGradient>
  </defs>
  <g
     transform="translate(-433.00039,12)"
     style="display:inline"
     label="status"
     id="layer9" />
  <g
     transform="translate(-433.00039,12)"
     style="display:inline"
     id="layer10" />
  <g
     transform="translate(-433.00039,12)"
     style="display:inline"
     id="layer13" />
  <g
     transform="translate(-433.00039,12)"
     id="layer14" />
  <g
     transform="translate(-433.00039,12)"
     style="display:inline"
     id="layer15" />
  <g
     transform="translate(-433.00039,12)"
     style="display:inline"
     id="g71291" />
  <g
     transform="translate(-701.76365,603.60207)"
     style="display:inline"
     id="layer9-2-2" />
  <g
     transform="translate(-701.76365,603.60207)"
     style="display:inline"
     id="layer10-0-6" />
  <g
     transform="translate(-701.76365,603.60207)"
     id="layer11-5" />
  <g
     transform="translate(-701.76365,603.60207)"
     id="layer14-7-9" />
  <g
     transform="translate(-701.76365,603.60207)"
     style="display:inline"
     id="layer15-5-2" />
  <g
     transform="translate(-701.76365,603.60207)"
     style="display:inline"
     id="g71291-8-4" />
  <g
     transform="translate(-701.76365,603.60207)"
     style="display:inline"
     id="g4953-5" />
  <g
     transform="translate(-701.76365,603.60207)"
     style="display:inline"
     id="layer12-4" />
  <g
     transform="translate(-288.02844,406.39676)"
     style="display:inline"
     id="layer10-2" />
  <g
     transform="translate(-288.02844,406.39676)"
     id="layer11" />
  <g
     transform="translate(-288.02844,406.39676)"
     style="display:inline"
     id="layer13-0" />
  <g
     transform="translate(-288.02844,406.39676)"
     id="layer14-3" />
  <g
     transform="translate(-288.02844,406.39676)"
     style="display:inline"
     id="layer15-1" />
  <g
     transform="translate(-288.02844,406.39676)"
     style="display:inline"
     id="g71291-5" />
  <g
     transform="translate(-288.02844,406.39676)"
     style="display:inline"
     id="g4953" />
  <g
     transform="translate(-288.02844,406.39676)"
     style="display:inline"
     id="layer12" />
  <path
     id="rect3375"
     d="M 10.130787,1 A 4.8692121,4.8692121 0 0 0 5.2615759,5.869212 4.8692121,4.8692121 0 0 0 5.7846357,8.0636861 L 1.3576471,12.488298 c -0.47686282,0.476861 -0.47686282,1.246857 0,1.72372 l 0.4303356,0.430334 c 0.4768629,0.476864 1.2468572,0.476864 1.72372,0 L 7.941069,10.210609 A 4.8692121,4.8692121 0 0 0 10.130787,10.738424 4.8692121,4.8692121 0 0 0 15,5.869212 4.8692121,4.8692121 0 0 0 14.474562,3.6794931 l -3.05039,3.0503901 c -0.476862,0.4768629 -1.246856,0.4768629 -1.7237202,0 L 9.2701167,6.2995476 c -0.4768629,-0.4768628 -0.4768629,-1.2468571 0,-1.7237201 L 12.322884,1.5230599 A 4.8692121,4.8692121 0 0 0 10.130787,1 Z"
     style="color:#fbc02d;clip-rule:nonzero;display:inline;overflow:visible;visibility:visible;opacity:1;isolation:auto;mix-blend-mode:normal;color-interpolation:sRGB;color-interpolation-filters:linearRGB;solid-color:#000000;solid-opacity:1;fill:#808080;fill-opacity:1;fill-rule:nonzero;stroke:none;stroke-width:1;stroke-linecap:butt;stroke-linejoin:miter;stroke-miterlimit:4;stroke-dasharray:none;stroke-dashoffset:0;stroke-opacity:1;marker:none;color-rendering:auto;image-rendering:auto;shape-rendering:auto;text-rendering:auto;enable-background:accumulate" />
  <path
     id="path4416-7"
     d="M 7.0890263,2.4375 C 6.2491115,2.437407 5.5006124,2.9674635 5.2218393,3.7597656 L 2.7023081,10.927734 c -0.4518437,1.287031 0.5031446,2.634604 1.8671874,2.634766 l 1.6308594,0 c 0.7911214,-0.0014 1.5054244,-0.473735 1.8164064,-1.201172 0.31154,0.728741 1.027771,1.201361 1.820312,1.201172 l 1.6308597,0 c 1.364382,-10e-4 2.318537,-1.34984 1.865234,-2.636719 L 10.80387,3.7578125 C 10.524676,2.9669569 9.7773263,2.4379431 8.9386363,2.4375 Z"
     style="color:#fbc02d;font-style:normal;font-variant:normal;font-weight:bold;font-stretch:normal;font-size:10px;line-height:125%;font-family:'Open Sans';-inkscape-font-specification:'Open Sans Bold';letter-spacing:0px;word-spacing:0px;clip-rule:nonzero;display:inline;overflow:visible;visibility:visible;opacity:0.07000002;isolation:auto;mix-blend-mode:normal;color-interpolation:sRGB;color-interpolation-filters:linearRGB;solid-color:#000000;solid-opacity:1;fill:#000000;fill-opacity:1;fill-rule:nonzero;stroke:none;stroke-width:1;stroke-linecap:butt;stroke-linejoin:miter;stroke-miterlimit:4;stroke-dasharray:none;stroke-dashoffset:0;stroke-opacity:1;marker:none;color-rendering:auto;image-rendering:auto;shape-rendering:auto;text-rendering:auto;enable-background:accumulate" />
  <path
     id="path4416"
     d="m 7.088048,3.388672 c -0.4360754,4.186e-4 -0.8244044,0.276007 -0.9687495,0.6875 l -2.5195313,7.167969 c -0.2337134,0.667686 0.2613417,1.366353 0.96875,1.367188 l 1.6308594,0 C 6.6514404,12.611003 7.050203,12.3153 7.181798,11.882813 l 0.296876,-0.970703 1.0781243,0 0.296876,0.970703 c 0.131595,0.432486 0.530357,0.72819 0.982421,0.728516 l 1.6308597,0 c 0.708572,-3.63e-4 1.204194,-0.700829 0.96875,-1.369141 L 9.9064083,4.0742189 C 9.7614033,3.6634963 9.3732263,3.3887985 8.9376583,3.388672 Z"
     style="color:#fbc02d;font-style:normal;font-variant:normal;font-weight:bold;font-stretch:normal;font-size:10px;line-height:125%;font-family:'Open Sans';-inkscape-font-specification:'Open Sans Bold';letter-spacing:0px;word-spacing:0px;clip-rule:nonzero;display:inline;overflow:visible;visibility:visible;opacity:0.2;isolation:auto;mix-blend-mode:normal;color-interpolation:sRGB;color-interpolation-filters:linearRGB;solid-color:#000000;solid-opacity:1;fill:#000000;fill-opacity:1;fill-rule:nonzero;stroke:none;stroke-width:1;stroke-linecap:butt;stroke-linejoin:miter;stroke-miterlimit:4;stroke-dasharray:none;stroke-dashoffset:0;stroke-opacity:1;marker:none;color-rendering:auto;image-rendering:auto;shape-rendering:auto;text-rendering:auto;enable-background:accumulate" />
  <path
     id="text3368"
     d="m 7.0883954,4.4160158 -2.5195308,7.1679692 1.6308594,0 0.5175782,-1.6992194 2.6015621,0 0.517578,1.6992194 1.6308597,0 -2.5292967,-7.1679692 z m 0.9316409,1.109375 c 0.02604,0.1171876 0.06836,0.2747396 0.126953,0.4765626 0.06185,0.2018229 0.332032,1.0735677 0.810547,2.6132812 l -1.8593749,0 C 7.6059744,6.9713544 7.9126144,5.9420575 8.0200363,5.5253908 Z"
     style="font-style:normal;font-variant:normal;font-weight:bold;font-stretch:normal;font-size:10px;line-height:125%;font-family:'Open Sans';-inkscape-font-specification:'Open Sans Bold';letter-spacing:0px;word-spacing:0px;fill:#ffffff;fill-opacity:1;stroke:none;stroke-width:1px;stroke-linecap:butt;stroke-linejoin:miter;stroke-opacity:1" />
</svg>

<?xml version="1.0" encoding="UTF-8"?>
<svg id="svg7384" width="16.036" height="16" version="1.1" xmlns="http://www.w3.org/2000/svg" xmlns:cc="http://creativecommons.org/ns#" xmlns:dc="http://purl.org/dc/elements/1.1/" xmlns:osb="http://www.openswatchbook.org/uri/2009/osb" xmlns:rdf="http://www.w3.org/1999/02/22-rdf-syntax-ns#">
 <metadata id="metadata90">
  <rdf:RDF>
   <cc:Work rdf:about="">
    <dc:format>image/svg+xml</dc:format>
    <dc:type rdf:resource="http://purl.org/dc/dcmitype/StillImage"/>
    <dc:title>elementary Symbolic Icon Theme</dc:title>
   </cc:Work>
  </rdf:RDF>
 </metadata>
 <title id="title9167">elementary Symbolic Icon Theme</title>
 <path id="rect3375" d="m10.131 1a4.8692 4.8692 0 0 0-4.8692 4.8692 4.8692 4.8692 0 0 0 0.52306 2.1945l-4.427 4.4246c-0.47686 0.47686-0.47686 1.2469 0 1.7237l0.43034 0.43033c0.47686 0.47686 1.2469 0.47686 1.7237 0l4.4294-4.4317a4.8692 4.8692 0 0 0 2.1897 0.52782 4.8692 4.8692 0 0 0 4.8692-4.8692 4.8692 4.8692 0 0 0-0.52544-2.1897l-3.0504 3.0504c-0.47686 0.47686-1.2469 0.47686-1.7237 0l-0.43034-0.43034c-0.47686-0.47686-0.47686-1.2469 0-1.7237l3.0528-3.0528a4.8692 4.8692 0 0 0-2.1921-0.52306z" style="color-rendering:auto;color:#fbc02d;fill:#808080;image-rendering:auto;isolation:auto;mix-blend-mode:normal;shape-rendering:auto;solid-color:#000000"/>
 <path id="path4416-7" d="m7.089 2.4375c-0.83991-9.3e-5 -1.5884 0.52996-1.8672 1.3223l-2.5195 7.168c-0.45184 1.287 0.50314 2.6346 1.8672 2.6348h1.6309c0.79112-0.0014 1.5054-0.47374 1.8164-1.2012 0.31154 0.72874 1.0278 1.2014 1.8203 1.2012h1.6309c1.3644-1e-3 2.3185-1.3498 1.8652-2.6367l-2.5293-7.168c-0.27919-0.79086-1.0265-1.3199-1.8652-1.3203z" style="color-rendering:auto;color:#fbc02d;image-rendering:auto;isolation:auto;mix-blend-mode:normal;opacity:.07;shape-rendering:auto;solid-color:#000000"/>
 <path id="path4416" d="m7.088 3.3887c-0.43608 4.186e-4 -0.8244 0.27601-0.96875 0.6875l-2.5195 7.168c-0.23371 0.66769 0.26134 1.3664 0.96875 1.3672h1.6309c0.45206-3.26e-4 0.85083-0.29603 0.98242-0.72852l0.29688-0.9707h1.0781l0.29688 0.9707c0.1316 0.43249 0.53036 0.72819 0.98242 0.72852h1.6309c0.70857-3.63e-4 1.2042-0.70083 0.96875-1.3691l-2.5293-7.168c-0.145-0.41072-0.53318-0.68542-0.96875-0.68555z" style="color-rendering:auto;color:#fbc02d;image-rendering:auto;isolation:auto;mix-blend-mode:normal;opacity:.2;shape-rendering:auto;solid-color:#000000"/>
 <path id="text3368" d="m7.0884 4.416-2.5195 7.168h1.6309l0.51758-1.6992h2.6016l0.51758 1.6992h1.6309l-2.5293-7.168zm0.93164 1.1094c0.02604 0.11719 0.06836 0.27474 0.12695 0.47656 0.06185 0.20182 0.33203 1.0736 0.81055 2.6133h-1.8594c0.50781-1.6439 0.81445-2.6732 0.92187-3.0898z" style="fill:#fff"/>
</svg>
